X:1
T:Chelsea (Attwood), CM
T:Chelsea (Attwood), CM
T:Thomas Attwood (1765-1838)
T:Public Domain Courtesy of the Cyber Hymnal™
C:Thomas Attwood (1765-1838)
Z:Public Domain
Z:Courtesy of the Cyber Hymnal™
%%score ( 1 2 ) ( 3 4 )
L:1/8
Q:1/4=118
M:3/4
K:G
V:1 treble 
V:2 treble 
V:3 bass 
V:4 bass 
V:1
 [B,D]2 | ([B,D]2 [DB]2) [^DA]2 | [EG]4 [E^G]2 | (A2 c2) [DB]2 | [CA]4 [DA]2 | [Dd]4 [Dc]2 | %6
 (B2 A2) [^CG]2 | [DA]4 D2 | (d2 B2) [DG]2 | ([DF]2 [CE]2) [DE]2 | ([Ce]2 [Ec]2) [EA]2 | %11
 (G2 F2) [CD]2 | [B,G]4 [Ge]2 | (B>c d2) [DF]2 | [DG]4 |] %15
V:2
 x2 | x6 | x6 | E4 x2 | x6 | x6 | D4 x2 | x4 D2 | D4 x2 | x6 | x6 | D4 x2 | x6 | G4 x2 | x4 |] %15
V:3
 [G,,G,]2 | G,4 [G,B,]2 | [E,B,]4 [D,B,]2 | [C,A,]4 [E,^G,]2 | [A,,A,]4 [D,F,]2 | %5
 [B,,G,]4 [D,F,]2 | G,2 [F,A,]2 E,2 | [D,F,]4 [^C,F,]2 | G,4 [B,,G,]2 | [C,G,]4 [B,,^G,]2 | %10
 [A,,A,]4 [C,A,]2 | (B,2 A,2) [D,F,]2 | [E,G,]4 [C,G,]2 | (G,>A, B,2) [D,C]2 | [G,,B,]4 |] %15
V:4
 x2 | (G,,2 G,2) x2 | x6 | x6 | x6 | x6 | (G,2 E,2) x2 | x6 | (B,,2 G,,2) x2 | x6 | x6 | D,4 x2 | %12
 x6 | D,4 x2 | x4 |] %15

